src/components/Icon/svg-icon/main/contact-list.svg

<svg xmlns="http://www.w3.org/2000/svg" width="24" height="24"><path fill="#677078" d="M19 4h-1V2h-2v2H8V2H6v2H5a2 2 0 00-2 2v14a2 2 0 002 2h14c1.1 0 2-.9 2-2V6c0-1.1-.9-2-2-2zm-7 3c1.66 0 3 1.34 3 3s-1.34 3-3 3-3-1.34-3-3 1.34-3 3-3zm6 12H6v-1c0-2 4-3.1 6-3.1s6 1.1 6 3.1v1z"/></svg>

<svg xmlns="http://www.w3.org/2000/svg" width="24" height="24" viewBox="0 0 24 24">
  <path fill="#677078" d="M19,4 L18,4 L18,2 L16,2 L16,4 L8,4 L8,2 L6,2 L6,4 L5,4 C3.89,4 3,4.9 3,6 L3,20 C3,21.1 3.89,22 5,22 L19,22 C20.1,22 21,21.1 21,20 L21,6 C21,4.9 20.1,4 19,4 Z M12,7 C13.66,7 15,8.34 15,10 C15,11.66 13.66,13 12,13 C10.34,13 9,11.66 9,10 C9,8.34 10.34,7 12,7 Z M18,19 L6,19 L6,18 C6,16 10,14.9 12,14.9 C14,14.9 18,16 18,18 L18,19 Z"/>
</svg>
